X:1
T:It Is Truly Wonderful
T:Barney Elliott Warren, 1897
T:It Is Truly Wonderful
T:Public Domain
T:Public Domain
T:Public Domain
C:Barney Elliott Warren, 1897
Z:Public Domain
%%score ( 1 2 ) ( 3 4 )
L:1/8
M:4/4
K:Db
V:1 treble 
V:2 treble 
V:3 bass 
V:4 bass 
V:1
 [FA]2 | [Fd]2 [DA]2 [DF]2 D2 | [DF]2 [FA]4 [Ad]2 | [=Gd]2 [GB]2 [Ge]2 [Gd]2 | (A4 G2) [GA]2 | %5
w: 1.~He|par- doned my trans-|sions, He sanc-|ti- fied my soul,|He * hon-|
w: 2.~He|keeps me ev- ery|ment By trust-|ing in His grace;|’Tis * through|
w: 3.~He|brings me through af-|tion, He leaves|me not a- lone;|He’s * with|
w: 4.~He|pros- pers and pro-|me, His bless-|ings ev- er flow;|He * fills|
w: 5.~He|keeps me firm and|ful, His love|I do en- joy,|For * this|
w: 6.~There’s|not a sin- gle|ing Which we|re- ceive on earth|That * does|
 [Fd]2 [DA]2 [DF]2 D2 | [DG]2 [GB]4 [Ge]2 | [Gc]2 [GA]2 [GB]2 [Gc]2 | [Fd]6 || %9
w: my con- fes- sions,|by His blood|I’m whole. * *||
w: blest a- tone- ment,|I may see|His face. * *||
w: in tempt- a- tion,|keeps me for|His own. It is|tru-|
w: with His glo- ry,|makes me white|as snow. * *||
w: shall be grate- ful,|live in His|em- ploy. * *||
w: come from Heav- en,|source of our|new birth. * *||
"^Refrain" [FA]>[FA] | [Fd]>[Fd] [Fd]>[GB] [FA]2 [DF]>D | %11
w: ||
w: ||
w: ly won-|der- ful What the Lord has done!|
w: ||
w: ||
w: ||
 [DF]2 [CE]2 D2 [FA]>[FA][Ge]>[Ge][Ge]>[Gc] [GA]2 [EA]>[EA] | [Af]>[Af] [Af]>[Ge] [Fd]2 [FA]>[FA] | %13
w: ||
w: ||
w: is tru- ly won- der- ful! It is tru- ly won- der-|It is tru- ly won- der- ful|
w: ||
w: ||
w: ||
 [Fd]>[Ad] [Gd]>[GB] [FA]2 [DF]>D | [DF]2 [CE]2 D2 z2 | [Fd]3 [Fd] [Ge]2 [Ec]2 | [Fd]4 z2 |] %17
w: ||||
w: ||||
w: What the Lord has done! Glo- ry|His name. *|||
w: ||||
w: ||||
w: ||||
V:2
 x2 | x6 D2 | x8 | x8 | c6 x2 | x6 D2 | x8 | x8 | x6 || x2 | x15/2 D/ | x4 D2 x10 | x8 | x15/2 D/ | %14
w: |gres-|||ors|Since|||||||||
w: |mo-|||His|That|||||||||
w: |flic-|||me|He|||||It|ful!||to|
w: |tects|||me|He|||||||||
w: |faith-|||I|And|||||||||
w: |bless-|||not|The|||||||||
 x4 D2 x2 | x8 | x6 |] %17
w: |||
w: |||
w: |||
w: |||
w: |||
w: |||
V:3
 [D,A,]2 | [D,A,]2 [D,F,]2 [D,A,]2 [D,F,]2 | [D,A,]2 [D,D]4 [F,A,]2 | %3
 [E,B,]2 [E,D]2 [E,B,]2 [E,E]2 | [A,E]6 [A,C]2 | [D,A,]2 [D,F,]2 [D,A,]2 [F,A,]2 | %6
 [G,B,]2 [G,D]4 [G,B,]2 | A,2 A,2 [A,,A,]2 [A,,A,]2 | [D,A,]6 || [D,D]>[D,D] | %10
 [D,A,]>[D,A,] [D,A,]>[D,D] [D,D]2 [D,A,]>[D,F,] | %11
 [A,,A,]2 [A,,G,]2 [D,F,]2 [D,D]>[D,D][A,C]>[A,C][A,C]>[A,E] [A,E]2 [A,C]>[A,C] | %12
 [D,D]>[D,D] [D,D]>[D,A,] [D,A,]2 [D,D]>[D,D] | [D,A,]>[F,_C] [G,B,]>[G,D] [D,D]2 [D,A,]>[D,F,] | %14
 [A,,A,]2 [A,,G,]2 [D,F,]2 z2 | [D,A,]3 [D,A,] [A,,A,]2 [A,,A,]2 | [D,A,]4 z2 |] %17
V:4
 x2 | x8 | x8 | x8 | x8 | x8 | x8 | A,2 A,2 x4 | x6 || x2 | x8 | x16 | x8 | x8 | x8 | x8 | x6 |] %17

